X:3122
T:Lord Gregory
C:Niel Gow
O:Scotland
S:Gow, Vocal Melodies arr. Henderson part 1 p13
Z:Jack Campin 1998-2001
F:http://abc.musicaviva.com/tunes/gow-niel/gow-lord-gregory.abc
%Posted at abcusers July 13th 2001 by Jack Campin
M:3/4
L:1/8
K:Am
"Slow"
   A2  |   e4        (AB)       |  (A2     ^G2)  .E2 |    A4            B2          |{B}c4
(3(ceg)|{f}e4        (dc)       |  (c2      B2)   c>A| {c}B4
  (Be) |   e4        (A/c/B/A/) |  (A2{BA})^G2   .E2 |    A4           (Bc/d/)      |{d}c4
(3(ceg)|{f}e4     {e}(dc)       |   c4         {c}B>A|    A4                       :|
   A2  |   e4        (ef/g/)    |{g}f4           (fe)| {e}d4            d{ed^cd}e/f/|  (f2e2)
   e>d |  (dc) c2    (c3/d//e//)|  (e2      d2)  .c2 |   (c2    B2)
  (Ee) |   e4        (A/c/B/A/) |  (A2{BA})^G2    E2 |{^G}A2 (3(ABc) (3(Bcd)        |{d}c4
(3(ceg)|  (fe) e2 {e}(dc)       |   c>d  {c}B3     A |    A4                       :|
W:
W:
W:  From Musica Viva - http://www.musicaviva.com
W:  the Internet center for free sheet music downloads.

